img/icon-sany.svg

<svg width="64" height="64" viewBox="0 0 64 64" fill="none" xmlns="http://www.w3.org/2000/svg">
<path d="M28.2851 54.4578C28.2851 54.4578 35.0882 58.6087 41.38 54.2417C47.8308 50.1501 52.6801 40.7404 49.0936 23.716C45.2318 6.85063 20.3651 3.21404 12.8697 20.7611C4.28411 41.5081 28.2851 54.4578 28.2851 54.4578Z" fill="#01D4E4"/>
<g style="mix-blend-mode:multiply">
<path d="M49.9126 30.221C51.0713 42.4044 46.8039 49.6418 41.4548 53.0973C35.2794 57.0299 28.6353 53.1544 28.6353 53.1544C28.6353 53.1544 5.06878 40.3213 13.4216 20.4432C16.4282 13.5663 22.0528 9.95179 28.0068 9.45193C21.7774 10.1108 15.7184 13.6089 12.5953 20.9202C3.85073 41.3918 28.0108 54.6168 28.0108 54.6168C28.0108 54.6168 34.8138 58.7677 41.1056 54.4007C46.7302 50.7862 51.5483 43.2306 49.9126 30.221Z" fill="#01D4E4"/>
</g>
<path opacity="0.42" d="M25.249 44.0506C27.6105 46.6508 31.1058 47.3228 33.0559 45.5517C35.0061 43.7806 34.6726 40.2369 32.3111 37.6367C29.9496 35.0365 26.4542 34.3644 24.5041 36.1355C22.5539 37.9067 22.8874 41.4504 25.249 44.0506Z" fill="#A7A9CA"/>
<path opacity="0.42" d="M41.6969 44.8486C43.9602 46.197 47.2525 44.8437 49.0503 41.8259C50.8482 38.8081 50.4708 35.2686 48.2075 33.9202C45.9442 32.5718 42.6519 33.9251 40.8541 36.9429C39.0562 39.9607 39.4336 43.5002 41.6969 44.8486Z" fill="#A7A9CA"/>
<path d="M26.0049 43.9783C28.3664 46.5785 31.8617 47.2506 33.8119 45.4795C35.762 43.7083 35.4285 40.1646 33.067 37.5644C30.7055 34.9642 27.2101 34.2921 25.26 36.0632C23.3098 37.8344 23.6434 41.3781 26.0049 43.9783Z" fill="white"/>
<path opacity="0.16" d="M34.8925 41.0957C34.9778 42.5154 34.6285 43.8186 33.9613 44.571C32.3515 46.2349 29.3106 45.4202 27.3287 43.2595C25.3468 41.0988 25.0174 37.9841 26.6273 36.3202C28.2371 34.6564 31.278 35.4711 33.2598 37.6318C33.5779 38.1826 34.1713 38.5745 34.2139 39.2843C33.8959 38.7335 33.4189 37.9072 32.8255 37.5154C30.5256 34.8039 26.9338 34.3071 25.0486 36.13C23.1633 37.9529 23.3764 41.5021 25.6763 44.2135C27.9762 46.925 31.5679 47.4218 33.4531 45.5989C34.9466 44.3694 35.1368 42.7908 34.8925 41.0957Z" fill="#A7A9CA"/>
<path d="M42.5016 44.721C44.7649 46.0694 48.0572 44.716 49.855 41.6983C51.6529 38.6805 51.2755 35.141 49.0122 33.7926C46.7489 32.4442 43.4566 33.7975 41.6588 36.8153C39.8609 39.8331 40.2382 43.3726 42.5016 44.721Z" fill="white"/>
<path d="M24.8772 33.2907C24.8772 33.2907 26.2116 31.7858 29.8772 31.1383C33.5427 30.4909 29.6215 26.8794 25.6068 28.8301C22.0265 30.8972 23.2674 34.9546 24.8772 33.2907Z" fill="#108F9B"/>
<path d="M50.0715 30.4965C50.0715 30.4965 48.8421 29.0031 45.3668 28.0719C41.7324 26.8653 46.2553 23.8866 49.8159 26.2375C53.3764 28.5883 51.46 32.2653 50.0715 30.4965Z" fill="#108F9B"/>
<path opacity="0.42" d="M23.9978 30.4942C23.9978 30.4942 22.2716 32.5925 23.2256 34.2449C24.1797 35.8974 25.2699 32.6974 28.819 32.4844C31.9337 32.155 32.1239 30.5763 31.0535 29.3583C31.0535 29.3583 31.5305 30.1845 29.9944 30.7042C28.2994 30.9484 26.0535 31.5106 24.8354 32.581C23.6174 33.6515 23.3306 31.2466 23.9978 30.4942Z" fill="#108F9B"/>
<path opacity="0.42" d="M46.3392 25.3062C46.3392 25.3062 45.354 25.5079 45.1212 26.3767C44.8884 27.2455 48.2048 27.9014 49.7096 29.2358C50.7801 30.4538 51.6489 30.6866 51.6063 29.9768C51.6063 29.9768 51.5324 31.1209 50.5472 31.3225L50.1128 31.2062L50.2718 31.4815C50.2718 31.4815 49.0424 29.9881 45.726 29.3323C42.5261 28.2421 42.7901 25.5192 46.3392 25.3062Z" fill="#108F9B"/>
<path opacity="0.16" d="M43.7391 43.6996C41.6834 42.6832 41.354 39.5685 43.0377 36.7604C44.4459 34.1113 47.518 33.072 49.5737 34.0884C50.0081 34.2048 50.1671 34.4802 50.3261 34.7556C50.008 34.2048 49.6901 33.654 48.8212 33.4212C46.6065 32.1294 43.259 33.3275 41.4589 36.5701C39.4999 39.5372 40.1474 43.2028 42.3621 44.4947C44.5768 45.7865 47.6489 44.7473 49.4915 42.2145C47.6063 44.0374 45.5194 44.8751 43.7391 43.6996Z" fill="#A7A9CA"/>
<path d="M38.9094 48.6909C37.2143 48.9351 35.4766 48.4695 34.7668 48.5121L34.6078 48.2368L34.8832 48.0778C35.5931 48.0351 37.6062 48.3418 39.3012 48.0976C39.3012 48.0976 39.7356 48.2139 39.4602 48.3729C39.4602 48.3729 39.3438 48.8073 39.1848 48.5319C39.6192 48.6483 39.1848 48.5319 38.9094 48.6909Z" fill="#108F9B"/>
</svg>

<svg width="64" height="64" fill="none" xmlns="http://www.w3.org/2000/svg"><path d="M28.285 54.458s6.803 4.15 13.095-.216c6.45-4.092 11.3-13.502 7.714-30.526C45.232 6.851 20.365 3.214 12.87 20.761 4.284 41.508 28.285 54.458 28.285 54.458Z" fill="#01D4E4"/><path d="M49.913 30.221c1.158 12.183-3.11 19.42-8.458 22.876-6.176 3.933-12.82.057-12.82.057S5.07 40.321 13.422 20.444c3.006-6.878 8.63-10.492 14.585-10.992-6.23.659-12.289 4.157-15.412 11.468-8.744 20.472 15.416 33.697 15.416 33.697s6.803 4.15 13.095-.216c5.624-3.615 10.442-11.17 8.807-24.18Z" fill="#01D4E4" style="mix-blend-mode:multiply"/><path opacity=".42" d="M25.249 44.05c2.361 2.6 5.857 3.273 7.807 1.502 1.95-1.771 1.617-5.315-.745-7.915-2.361-2.6-5.857-3.273-7.807-1.502-1.95 1.772-1.617 5.315.745 7.916ZM41.697 44.849c2.263 1.348 5.555-.005 7.353-3.023 1.798-3.018 1.42-6.557-.842-7.906-2.264-1.348-5.556.005-7.354 3.023-1.798 3.018-1.42 6.557.843 7.906Z" fill="#A7A9CA"/><path d="M26.005 43.978c2.361 2.6 5.857 3.273 7.807 1.502 1.95-1.772 1.617-5.315-.745-7.916-2.361-2.6-5.857-3.272-7.807-1.5-1.95 1.77-1.617 5.314.745 7.914Z" fill="#fff"/><path opacity=".16" d="M34.892 41.096c.086 1.42-.264 2.723-.93 3.475-1.61 1.664-4.651.85-6.633-1.311-1.982-2.161-2.312-5.276-.702-6.94 1.61-1.664 4.651-.849 6.633 1.312.318.55.911.943.954 1.652-.318-.55-.795-1.377-1.389-1.769-2.3-2.711-5.891-3.208-7.776-1.385-1.886 1.823-1.673 5.372.627 8.084 2.3 2.711 5.892 3.208 7.777 1.385 1.494-1.23 1.684-2.808 1.44-4.503Z" fill="#A7A9CA"/><path d="M42.502 44.721c2.263 1.348 5.555-.005 7.353-3.023 1.798-3.017 1.42-6.557-.843-7.905-2.263-1.349-5.555.005-7.353 3.022-1.798 3.018-1.42 6.558.843 7.906Z" fill="#fff"/><path d="M24.877 33.29s1.335-1.504 5-2.152c3.666-.647-.255-4.259-4.27-2.308-3.58 2.067-2.34 6.125-.73 4.46ZM50.072 30.497s-1.23-1.494-4.705-2.425c-3.635-1.207.888-4.185 4.449-1.834 3.56 2.35 1.644 6.027.255 4.259Z" fill="#108F9B"/><path opacity=".42" d="M23.998 30.494s-1.726 2.099-.772 3.75c.954 1.653 2.044-1.547 5.593-1.76 3.115-.329 3.305-1.908 2.235-3.126 0 0 .477.826-1.06 1.346-1.695.244-3.94.807-5.159 1.877-1.218 1.07-1.504-1.334-.837-2.087ZM46.34 25.306s-.986.202-1.219 1.07c-.233.87 3.084 1.525 4.589 2.86 1.07 1.218 1.939 1.45 1.896.74 0 0-.074 1.145-1.059 1.347l-.434-.117.159.276s-1.23-1.494-4.546-2.15c-3.2-1.09-2.936-3.813.613-4.026Z" fill="#108F9B"/><path opacity=".16" d="M43.74 43.7c-2.057-1.017-2.386-4.132-.702-6.94 1.408-2.649 4.48-3.688 6.536-2.672.434.117.593.392.752.668-.318-.551-.636-1.102-1.505-1.335-2.215-1.292-5.562-.093-7.362 3.15-1.96 2.966-1.312 6.632.903 7.924 2.215 1.291 5.287.252 7.13-2.28-1.886 1.822-3.973 2.66-5.753 1.485Z" fill="#A7A9CA"/><path d="M38.91 48.69c-1.696.245-3.433-.22-4.143-.178l-.16-.275.276-.16c.71-.042 2.723.265 4.418.02 0 0 .435.117.16.276 0 0-.117.434-.276.159.434.116 0 0-.276.159Z" fill="#108F9B"/></svg>
